X:57
T:Jenny Lynn
C:Traditional - Bill Monroe solo
M:4/4
L:1/8
Q:1/8=480
K:A
|:eeee eeee|fece ecA2|Acc[ee] e2ee|fee2 e2c2|
[ee]eee eeee|fece e2c2|[ee]eee [e2e2]cB|ABcA BAA2:|
3 cccc c2cB|ABcA BAA2|Acce e2cB|ABcA B2A2:|
3 A2A2 BBcB|ABAc BAA2|A2ce e2cB|ABcA BAA2:|
